X: 5
T:Avalon Quickstep
L:1/8
C:Willie Narmour and Shellie Smith
S:https://www.mandolincafe.com/te/tabledit_files/AvalonQuickstep-D-Narmour-Smith.tef
R:Reel
K:D
z6 FG |: "D""D"AB AG FG A2 | [f2d2] [d2F2] z2 FG | AB AG FG A2 | "A""A"[a3A3]b [a2A2] FG | 
"D""D"AB AG FG A2 | [f2d2] [d2F2] z2 fa | "G""G"fe dc "A7""A7"BA c2 |1 [d2F2] [dF][eF] [d2F2] FG :|2 [d2F2] [dF][eF] [dF]e fg | 
|: [a2A2] [aA][aA] [aA]f ga | "G""G"[b4d4] "A""A"[a3e3]g | "D""D"f2 [f4d4] ef | 
"G""G"gf ed "A""A"cB A2 | "D""D"[b2d2] [a3f3]e fg | [a2A2] [aA][aA] [aA]f ga | 
"G""G"[b4d4] "A""A"[a3e3]g | "D""D"f2 [f4d4] fa | "G""G"fe dc "A""A"BA c2 |1 [d2F2] [dF][eF] [dF]e fg :|2 [d8F8] |

